docs/src/images/icons/CopyIcon.svg

<svg width="16" height="16" viewBox="0 0 16 16" fill="none" xmlns="http://www.w3.org/2000/svg">
<path d="M3.09998 4.35001C3.09998 3.66001 3.65998 3.10001 4.34998 3.10001H11.1C11.2989 3.10001 11.4897 3.02099 11.6303 2.88034C11.771 2.73968 11.85 2.54892 11.85 2.35001C11.85 2.15109 11.771 1.96033 11.6303 1.81968C11.4897 1.67902 11.2989 1.60001 11.1 1.60001H4.34998C3.62063 1.60001 2.92116 1.88974 2.40543 2.40546C1.88971 2.92119 1.59998 3.62066 1.59998 4.35001V11.1C1.59998 11.2989 1.67899 11.4897 1.81965 11.6303C1.9603 11.771 2.15106 11.85 2.34998 11.85C2.54889 11.85 2.73965 11.771 2.88031 11.6303C3.02096 11.4897 3.09998 11.2989 3.09998 11.1V4.35001Z" fill="black"/>
<path fill-rule="evenodd" clip-rule="evenodd" d="M4.34998 5.35001C4.34998 5.08479 4.45533 4.83044 4.64287 4.6429C4.83041 4.45536 5.08476 4.35001 5.34998 4.35001H13.35C13.6152 4.35001 13.8695 4.45536 14.0571 4.6429C14.2446 4.83044 14.35 5.08479 14.35 5.35001V13.35C14.35 13.6152 14.2446 13.8696 14.0571 14.0571C13.8695 14.2447 13.6152 14.35 13.35 14.35H5.34998C5.08476 14.35 4.83041 14.2447 4.64287 14.0571C4.45533 13.8696 4.34998 13.6152 4.34998 13.35V5.35001ZM5.84998 12.85V5.85001H12.85V12.85H5.84998Z" fill="black"/>
</svg>

<svg width="16" height="16" viewBox="0 0 16 16" fill="none" xmlns="http://www.w3.org/2000/svg"><path d="M3.1 4.35c0-.69.56-1.25 1.25-1.25h6.75a.75.75 0 1 0 0-1.5H4.35A2.75 2.75 0 0 0 1.6 4.35v6.75a.75.75 0 1 0 1.5 0V4.35z" fill="#000"/><path fill-rule="evenodd" clip-rule="evenodd" d="M4.35 5.35a1 1 0 0 1 1-1h8a1 1 0 0 1 1 1v8a1 1 0 0 1-1 1h-8a1 1 0 0 1-1-1v-8zm1.5 7.5v-7h7v7h-7z" fill="#000"/></svg>
